X: 8
T: Condon's Frolics
R: jig
M: 6/8
L: 1/8
K: Ador
eAB c2e|dcB c2d|eAB c2e|dcd eag|
eAB c2e|d2c Bcd|eAA gfe|dcB A2z:|
|:eaa efg|dec Bcd|eAB c2e|dcd efg|
eaa bag|edc Bcd|eAA gfe|dcB A2z:|]


Tune 1244	Setting 14544

